X: 1
T: the Maid I Adore   #2
T: Dearest my own one
T: Cailin mo r\`uinsa
C: Donald Ross
R: march, slipjig, air
S: handwritten copy of SRSNH C-205 (6.21) in Concord Slow Scottish Session collection
M: 9/8
L: 1/8
K: D
"A"[|] A- |\
"D"ABd f3 "D7"e2f | "G"edB "D"A3- A2f |\
"G"gfg "D"a3 "Bm"f2e | "Em"dBd "A7"e3- e2a |\
"D"aga f3 "D7"ed2 |
"G"edB "D"A3- A2f |\
"G"gfg "D"a3 f2d | "Em"edB "D"d3- d2 "B"|[|\
A |\
"D"ABA d3 "D7"e2f | "G"edB "D"A3- A2A |
"D"ABA "/c#"a3 "Bm"f2e | "Em"dBd "A7"e3- e2a |\
"D"aga f3 "D7"e2d | "G"edB "D"A3- A2f |\
"G"gfg "D"a3 f2d | "Em"edB "D"d3- d2 |]
